icon-themes/breeze_svg/cmd/sc_symbolshapes.left-brace.svg

<svg viewBox="0 0 16 16" xmlns="http://www.w3.org/2000/svg">/&gt;<path d="m9 2c-1.104522 0-2 .8954778-2 2v2 1c0 .2761493-.2238577.5-.5.5h-.5v1h.5c.2761423 0 .5.2238507.5.5v1 1 1c0 1.104597.8954307 2 2 2h1v-1h-1c-.5522842 0-1-.447701-1-1v-1-1-1c0-.382499-.1392847-.7350257-.375-1 .2357153-.2649743.375-.617501.375-1v-1-.28125-1.71875c0-.5522986.4477765-1 1-1h1v-1z" fill="#4d4d4d"/></svg>

<svg xmlns="http://www.w3.org/2000/svg" viewBox="0 0 16 16">
     />
 <path 
     style="fill:#4d4d4d" 
     d="M 9 2 C 7.895478 2 7 2.8954778 7 4 L 7 6 L 7 7 C 7 7.2761493 6.7761423 7.5 6.5 7.5 L 6 7.5 L 6 8.5 L 6.5 8.5 C 6.7761423 8.5 7 8.7238507 7 9 L 7 10 L 7 11 L 7 12 C 7 13.104597 7.8954307 14 9 14 L 10 14 L 10 13 L 9 13 C 8.4477158 13 8 12.552299 8 12 L 8 11 L 8 10 L 8 9 C 8 8.617501 7.8607153 8.2649743 7.625 8 C 7.8607153 7.7350257 8 7.382499 8 7 L 8 6 L 8 5.71875 L 8 4 C 8 3.4477014 8.4477765 3 9 3 L 10 3 L 10 2 L 9 2 z "
     />
 </svg>
